images/tel-menu.svg

<svg width="100" height="200" fill="none" xmlns="http://www.w3.org/2000/svg"><path fill="#2C6269" d="M100 100H0V0h100z"/><path fill-rule="evenodd" clip-rule="evenodd" d="M100 200c55.228 0 100-44.772 100-100S155.228 0 100 0 0 44.772 0 100s44.772 100 100 100Zm0-67c18.225 0 33-14.775 33-33s-14.775-33-33-33-33 14.775-33 33 14.775 33 33 33Z" fill="#F67E7E"/><path fill-rule="evenodd" clip-rule="evenodd" d="M100 0H0v4h100V0Zm0 8H0v4h100V8ZM0 16h100v4H0v-4Zm100 8H0v4h100v-4ZM0 32h100v4H0v-4Zm100 8H0v4h100v-4Z" fill="#79C8C7"/></svg>

<svg width="100" height="200" viewBox="0 0 100 200" fill="none" xmlns="http://www.w3.org/2000/svg">
<rect x="100" y="100" width="100" height="100" transform="rotate(-180 100 100)" fill="#2C6269"/>
<path fill-rule="evenodd" clip-rule="evenodd" d="M100 200C155.228 200 200 155.228 200 100C200 44.7715 155.228 0 100 0C44.7715 0 0 44.7715 0 100C0 155.228 44.7715 200 100 200ZM100 133C118.225 133 133 118.225 133 100C133 81.7746 118.225 67 100 67C81.7746 67 67 81.7746 67 100C67 118.225 81.7746 133 100 133Z" fill="#F67E7E"/>
<path fill-rule="evenodd" clip-rule="evenodd" d="M100 0H0V4H100V0ZM100 8H0V12H100V8ZM0 16H100V20H0V16ZM100 24H0V28H100V24ZM0 32H100V36H0V32ZM100 40H0V44H100V40Z" fill="#79C8C7"/>
</svg>
